X: 7
T: Green Groves Of Erin, The
Z: Mike Maloney
S: https://thesession.org/tunes/41#setting52431
R: reel
M: 4/4
L: 1/8
K: Ador
|:A2{Bc}BA eABA|GABd gedB|A2{Bc}BA eABA|AGEF GABG|
A2{Bc}BA eABA|GABd gedB|A2{Bc}BA eABA|AGEF GABd:|
|:eaag eaag|eggf eggf|eaag eaag|edef gedg|
eaag bgag|edef gfge|dega b2ag|e/2f/2gfa gedB:|

